X: 113103
Q: "Strathspey."
M: C
L: 1/16
K: D
vF3vAud3uA (Bd3) A3uF | (GB3) A3F BE3 E3G |\
uf2 |\
(defg) ua3uf (bg3)(af3) | (defg) a3f (bg3) (af3) |
(defg) a3f (bg3) (af3) | Aa3 a3g fd3 d3f |\
(defg) (af3) (bg3) (af3) | (defg) a3f ge3 e3g |\
f3de2f2 d3B AF3 | A3Bd3e fd3 d2 |]


